X: 3
T: Toss The Feathers
R: reel
M: 4/4
L: 1/8
Q:1/2=80
K: Edor
|:"Em"EB ~B2 dB ~B2|"Em"EBBA "D"FDFA|"Em"BE ~E2 BABd|[1"C"egfe "D"dBAF:|[2 "C"egfe "D"dBAe |]
"Em"Beed ((3efe) de|"Em"fede "Bm"fede|"Em"febe febe|"Em"fede "Bm"fede|
"Em"Beed ((3efe) de|"Bm"fede "D"defa|"G"b3 g "D"a3 f|"C"g2 fe "Bm"dBAF|]
